storage/app/icons/phosphoricons/thin/stairs-thin.svg

<svg xmlns="http://www.w3.org/2000/svg" fill="currentColor" viewBox="0 0 256 256"><path d="M200 28H56a12 12 0 0 0-12 12v176a12 12 0 0 0 12 12h144a12 12 0 0 0 12-12V40a12 12 0 0 0-12-12m-48 112h52v32h-96v-32Zm4-8v-32h48v32ZM56 36h144a4 4 0 0 1 4 4v52h-52a4 4 0 0 0-4 4v36h-44a4 4 0 0 0-4 4v36H52V40a4 4 0 0 1 4-4m144 184H56a4 4 0 0 1-4-4v-36h152v36a4 4 0 0 1-4 4"/></svg>

<svg xmlns="http://www.w3.org/2000/svg" viewBox="0 0 256 256" fill="currentColor"><path d="M200,28H56A12,12,0,0,0,44,40V216a12,12,0,0,0,12,12H200a12,12,0,0,0,12-12V40A12,12,0,0,0,200,28ZM152,140h52v32H108V140Zm4-8V100h48v32ZM56,36H200a4,4,0,0,1,4,4V92H152a4,4,0,0,0-4,4v36H104a4,4,0,0,0-4,4v36H52V40A4,4,0,0,1,56,36ZM200,220H56a4,4,0,0,1-4-4V180H204v36A4,4,0,0,1,200,220Z"/></svg>
